;FLAVOR:UltiGCode
;TIME:9602
;MATERIAL:9880
;MATERIAL2:0
;NOZZLE_DIAMETER:0.4
;MINX:63.556
;MINY:89.814
;MINZ:0.27
;MAXX:158.608
;MAXY:132.933
;MAXZ:18.67
;TARGET_MACHINE.NAME:Ultimaker 2+
;Generated with Cura_SteamEngine 5.6.0
M82 ;absolute extrusion mode
G0 F3000 Y50 ;avoid prime blob
G92 E0
G92 E0
G10
;LAYER_COUNT:185
;LAYER:0
M107
G0 F7200 X67.783 Y93.009 Z0.27
;TYPE:SKIRT
G11
G1 F1800 X70.667 Y91.684 E0.34277
G1 X71.85 Y91.515 E0.47183
G1 X73.056 Y90.758 E0.62561
G1 X75.294 Y90.067 E0.87858
G1 X83.021 Y90.067 E1.71309
G1 X85.735 Y90.956 E2.02153
G1 X86.599 Y91.784 E2.15077
G1 X88.569 Y91.147 E2.37438
G1 X92.543 Y91.147 E2.80357
G1 X94.312 Y91.749 E3.00538
G1 X95.64 Y90.689 E3.18889
G1 X98.243 Y90.067 E3.47793
G1 X125.736 Y90.067 E6.44717
G1 X128.45 Y90.956 E6.75561
G1 X129.314 Y91.784 E6.88485
G1 X131.284 Y91.147 E7.10846
G1 X136.81 Y91.147 E7.70527
G1 X138.362 Y91.68 E7.88249
G1 X140.958 Y90.312 E8.19941
G1 X144.125 Y89.814 E8.54565
G1 X147.809 Y90.661 E8.9539
G1 X148.807 Y91.189 E9.07584
G1 X149.631 Y91.358 E9.16668
G1 X149.97 Y91.457 E9.20482
G1 X152.156 Y91.764 E9.44323
G1 X155.256 Y93.497 E9.82679
G1 X157.366 Y96.055 E10.18491
G1 X158.539 Y98.988 E10.52607
G1 X158.607 Y101.559 E10.80384
G1 X158.549 Y103.126 E10.97319
G1 X158.307 Y104.716 E11.14689
G1 X157.664 Y107.06 E11.40939
G1 X157.111 Y107.889 E11.51701
G1 X157.114 Y115.316 E12.31913
G1 X157.371 Y115.767 E12.37519
G1 X158.418 Y117.981 E12.63969
G1 X158.608 Y120.721 E12.93632
G1 X158.605 Y123.832 E13.27231
G1 X157.479 Y127.051 E13.64062
G1 X155.498 Y129.454 E13.97696
G1 X153.021 Y131.132 E14.30008
G1 X150.999 Y131.561 E14.52332
G1 X150.187 Y131.857 E14.61666
G1 X149.636 Y131.925 E14.67662
G1 X147.527 Y132.933 E14.92907
G1 X142.063 Y132.929 E15.51918
G1 X139.366 Y132.047 E15.82564
G1 X138.479 Y131.201 E15.95802
G1 X136.521 Y131.835 E16.18029
G1 X131.361 Y131.835 E16.73757
G1 X129.551 Y131.441 E16.93763
G1 X129.182 Y131.252 E16.98241
G1 X127.868 Y132.3 E17.16393
G1 X125.253 Y132.921 E17.4542
G1 X97.787 Y132.917 E20.42053
G1 X95.11 Y132.042 E20.7247
G1 X94.215 Y131.196 E20.85771
G1 X92.241 Y131.835 E21.08179
G1 X88.657 Y131.835 E21.46886
G1 X86.849 Y131.442 E21.66869
G1 X86.479 Y131.255 E21.71346
G1 X85.165 Y132.304 E21.89505
G1 X82.565 Y132.925 E22.18375
G1 X75.289 Y132.93 E22.96955
G1 X73.108 Y132.406 E23.2118
G1 X71.706 Y131.426 E23.39654
G1 X71.121 Y131.346 E23.46031
G1 X67.9 Y130.086 E23.83385
G1 X65.259 Y127.372 E24.24284
G1 X63.556 Y123.868 E24.6636
G1 X63.589 Y119.193 E25.16851
G1 X64.246 Y116.443 E25.47387
G1 X64.518 Y115.959 E25.53383
G1 X64.375 Y115.423 E25.59374
G1 X64.375 Y107.601 E26.43852
G1 X64.645 Y106.904 E26.51924
G1 X64.348 Y106.397 E26.5827
G1 X63.784 Y103.968 E26.85201
G1 X63.776 Y99.603 E27.32343
G1 X64.905 Y96.058 E27.72524
G1 X65.059 Y95.779 E27.75966
G1 X67.783 Y93.009 E28.17924
G0 F7200 X68.015 Y93.343
G1 F1800 X70.783 Y92.072 E28.50819
G1 X71.991 Y91.899 E28.63998
G1 X73.226 Y91.124 E28.79745
G1 X75.354 Y90.467 E29.03798
G1 X82.958 Y90.467 E29.85921
G1 X85.523 Y91.307 E30.15071
G1 X86.495 Y92.239 E30.29614
G1 X88.633 Y91.547 E30.53884
G1 X92.476 Y91.547 E30.95389
G1 X94.39 Y92.198 E31.17223
G1 X95.82 Y91.057 E31.36981
G1 X98.29 Y90.467 E31.64407
G1 X125.673 Y90.467 E34.60143
G1 X128.238 Y91.307 E34.89293
G1 X129.21 Y92.239 E35.03837
G1 X131.348 Y91.547 E35.28106
G1 X136.744 Y91.547 E35.86383
G1 X138.479 Y92.142 E36.06192
G1 X138.685 Y91.962 E36.09147
G1 X141.087 Y90.696 E36.38471
G1 X144.11 Y90.221 E36.7152
G1 X147.668 Y91.039 E37.10949
G1 X148.67 Y91.569 E37.23191
G1 X149.519 Y91.742 E37.32549
G1 X149.885 Y91.849 E37.36667
G1 X152.027 Y92.15 E37.60028
G1 X154.995 Y93.809 E37.9675
G1 X157.018 Y96.262 E38.3109
G1 X158.141 Y99.069 E38.63741
G1 X158.207 Y101.545 E38.90492
G1 X158.153 Y103.067 E39.06939
G1 X157.921 Y104.61 E39.23791
G1 X157.295 Y106.892 E39.49347
G1 X156.711 Y107.768 E39.60718
G1 X156.714 Y115.423 E40.43392
G1 X157.009 Y115.938 E40.49802
G1 X158.024 Y118.085 E40.7545
G1 X158.208 Y120.721 E41.03988
G1 X158.205 Y123.763 E41.36841
G1 X157.125 Y126.851 E41.72173
G1 X155.223 Y129.157 E42.04456
G1 X152.862 Y130.757 E42.35258
G1 X150.885 Y131.177 E42.57086
G1 X150.092 Y131.466 E42.66202
G1 X149.521 Y131.536 E42.72415
G1 X147.436 Y132.533 E42.97375
G1 X142.126 Y132.529 E43.54723
G1 X139.576 Y131.695 E43.83698
G1 X138.582 Y130.747 E43.98533
G1 X136.457 Y131.435 E44.22656
G1 X131.405 Y131.435 E44.77218
G1 X129.636 Y131.05 E44.9677
G1 X129.143 Y130.772 E45.02883
G1 X127.688 Y131.932 E45.22979
G1 X125.207 Y132.521 E45.50519
G1 X97.85 Y132.517 E48.45975
G1 X95.321 Y131.69 E48.74711
G1 X94.318 Y130.742 E48.89616
G1 X92.177 Y131.435 E49.1392
G1 X88.701 Y131.435 E49.51461
G1 X86.934 Y131.051 E49.7099
G1 X86.44 Y130.774 E49.77107
G1 X84.984 Y131.936 E49.97225
G1 X82.518 Y132.525 E50.24607
G1 X75.336 Y132.53 E51.02173
G1 X73.275 Y132.035 E51.25065
G1 X71.853 Y131.041 E51.43802
G1 X71.267 Y130.973 E51.50174
G1 X68.126 Y129.744 E51.86601
G1 X65.591 Y127.139 E52.25857
G1 X63.957 Y123.777 E52.66228
G1 X63.989 Y119.241 E53.15218
G1 X64.635 Y116.536 E53.45254
G1 X64.952 Y116.016 E53.51831
G1 X64.775 Y115.423 E53.58515
G1 X64.775 Y107.675 E54.42193
G1 X65.087 Y106.869 E54.51527
G1 X64.725 Y106.248 E54.5929
G1 X64.184 Y103.92 E54.85103
G1 X64.176 Y99.664 E55.31068
G1 X65.286 Y96.179 E55.70569
G1 X65.382 Y96.02 E55.72575
G1 X68.015 Y93.343 E56.13127
G0 F7200 X68.248 Y93.676
G1 F1800 X70.895 Y92.46 E56.44587
G1 X72.132 Y92.283 E56.58083
G1 X73.396 Y91.49 E56.74198
G1 X75.414 Y90.867 E56.97007
G1 X82.895 Y90.867 E57.77802
G1 X85.311 Y91.658 E58.05258
G1 X86.391 Y92.694 E58.21421
G1 X88.697 Y91.947 E58.476
G1 X92.409 Y91.947 E58.87689
G1 X94.468 Y92.647 E59.11176
G1 X96 Y91.425 E59.32341
G1 X98.337 Y90.867 E59.5829
G1 X125.61 Y90.867 E62.52838
G1 X128.026 Y91.658 E62.80294
G1 X129.106 Y92.694 E62.96457
G1 X131.412 Y91.947 E63.22636
G1 X136.678 Y91.947 E63.79509
G1 X138.587 Y92.602 E64.01306
G1 X138.871 Y92.316 E64.05659
G1 X141.215 Y91.081 E64.34273
G1 X144.095 Y90.628 E64.65759
G1 X147.527 Y91.417 E65.03791
G1 X148.532 Y91.949 E65.16072
G1 X149.407 Y92.126 E65.25714
G1 X149.8 Y92.241 E65.30136
G1 X151.898 Y92.536 E65.53017
G1 X154.732 Y94.12 E65.88081
G1 X156.671 Y96.471 E66.20994
G1 X157.743 Y99.15 E66.52157
G1 X157.807 Y101.531 E66.77881
G1 X157.757 Y103.008 E66.93842
G1 X157.535 Y104.504 E67.10176
G1 X156.926 Y106.724 E67.35037
G1 X156.311 Y107.647 E67.47016
G1 X156.314 Y115.531 E68.32163
G1 X156.647 Y116.109 E68.39367
G1 X157.63 Y118.189 E68.64214
G1 X157.808 Y120.721 E68.91627
G1 X157.805 Y123.694 E69.23735
G1 X156.771 Y126.651 E69.57567
G1 X154.948 Y128.86 E69.88499
G1 X152.703 Y130.382 E70.17792
G1 X150.771 Y130.793 E70.39124
G1 X149.997 Y131.075 E70.48021
G1 X149.349 Y131.154 E70.55071
G1 X149.203 Y131.244 E70.56924
G1 X147.345 Y132.133 E70.79169
G1 X142.189 Y132.129 E71.34854
G1 X139.786 Y131.343 E71.62159
G1 X138.685 Y130.293 E71.7859
G1 X136.393 Y131.035 E72.04609
G1 X131.449 Y131.035 E72.58004
G1 X129.721 Y130.659 E72.77103
G1 X129.113 Y130.284 E72.84818
G1 X127.508 Y131.564 E73.06989
G1 X125.161 Y132.121 E73.33041
G1 X97.913 Y132.117 E76.27319
G1 X95.532 Y131.338 E76.54376
G1 X94.42 Y130.288 E76.70893
G1 X92.113 Y131.035 E76.97082
G1 X88.745 Y131.035 E77.33457
G1 X87.019 Y130.66 E77.52532
G1 X86.411 Y130.286 E77.60242
G1 X84.804 Y131.568 E77.82443
G1 X82.471 Y132.125 E78.08348
G1 X75.384 Y132.13 E78.84887
G1 X73.442 Y131.663 E79.06459
G1 X72 Y130.656 E79.25454
G1 X71.368 Y130.582 E79.32326
G1 X68.352 Y129.402 E79.67303
G1 X65.923 Y126.906 E80.04918
G1 X64.358 Y123.686 E80.43584
G1 X64.389 Y119.289 E80.91073
G1 X65.024 Y116.629 E81.20608
G1 X65.393 Y116.075 E81.27797
G1 X65.175 Y115.423 E81.35221
G1 X65.175 Y107.749 E82.18101
G1 X65.529 Y106.833 E82.28707
G1 X65.101 Y106.099 E82.37883
G1 X64.584 Y103.873 E82.62564
G1 X64.576 Y99.725 E83.07362
G1 X65.667 Y96.3 E83.46183
G1 X68.248 Y93.676 E83.85934
G0 F7200 X68.481 Y94.009
G1 F1800 X71.008 Y92.848 E84.15968
G1 X72.335 Y92.659 E84.30445
G1 X72.505 Y92.522 E84.32803
G1 X73.566 Y91.856 E84.46332
G1 X75.474 Y91.267 E84.67898
G1 X82.832 Y91.267 E85.47364
G1 X85.099 Y92.009 E85.73126
G1 X86.287 Y93.149 E85.90908
G1 X88.761 Y92.347 E86.18996
G1 X92.342 Y92.347 E86.57671
G1 X94.547 Y93.097 E86.82825
G1 X96.181 Y91.793 E87.05402
G1 X98.384 Y91.267 E87.29864
G1 X125.547 Y91.267 E90.23224
G1 X127.814 Y92.009 E90.48986
G1 X129.002 Y93.149 E90.66768
G1 X131.476 Y92.347 E90.94856
G1 X136.612 Y92.347 E91.50325
G1 X138.711 Y93.067 E91.74291
G1 X139.058 Y92.67 E91.79985
G1 X141.344 Y91.465 E92.07894
G1 X144.08 Y91.035 E92.37805
G1 X147.386 Y91.795 E92.74442
G1 X148.395 Y92.329 E92.86771
G1 X149.295 Y92.51 E92.96685
G1 X149.715 Y92.633 E93.01412
G1 X151.769 Y92.922 E93.23814
G1 X154.469 Y94.431 E93.57219
G1 X156.324 Y96.68 E93.88704
G1 X157.345 Y99.231 E94.1838
G1 X157.407 Y101.518 E94.43088
G1 X157.361 Y102.95 E94.58562
G1 X157.149 Y104.398 E94.74367
G1 X156.557 Y106.556 E94.98534
G1 X155.911 Y107.526 E95.11121
G1 X155.914 Y115.637 E95.9872
G1 X156.285 Y116.28 E96.06737
G1 X157.236 Y118.293 E96.30782
G1 X157.408 Y120.721 E96.5707
G1 X157.405 Y123.625 E96.88433
G1 X156.416 Y126.453 E97.20789
G1 X154.677 Y128.56 E97.50294
G1 X152.542 Y130.008 E97.78155
G1 X150.657 Y130.409 E97.98969
G1 X149.902 Y130.684 E98.07647
G1 X149.212 Y130.768 E98.15154
G1 X148.993 Y130.903 E98.17932
G1 X147.255 Y131.733 E98.38733
G1 X142.252 Y131.729 E98.92766
G1 X139.996 Y130.991 E99.18401
G1 X138.788 Y129.839 E99.36429
G1 X136.329 Y130.635 E99.64343
G1 X131.493 Y130.635 E100.16572
G1 X129.874 Y130.283 E100.34465
G1 X129.084 Y129.796 E100.44488
G1 X127.328 Y131.196 E100.68743
G1 X125.115 Y131.721 E100.93306
G1 X97.976 Y131.717 E103.86408
G1 X95.743 Y130.986 E104.11783
G1 X94.522 Y129.834 E104.29913
G1 X92.049 Y130.635 E104.57988
G1 X88.789 Y130.635 E104.93196
G1 X87.17 Y130.283 E105.11089
G1 X86.381 Y129.798 E105.21092
G1 X84.624 Y131.2 E105.45368
G1 X82.424 Y131.725 E105.69795
G1 X75.431 Y131.73 E106.4532
G1 X73.609 Y131.292 E106.65558
G1 X72.147 Y130.271 E106.84817
G1 X71.469 Y130.191 E106.9219
G1 X68.578 Y129.06 E107.25717
G1 X66.255 Y126.673 E107.61689
G1 X64.759 Y123.595 E107.9865
G1 X64.789 Y119.337 E108.44638
G1 X65.396 Y116.792 E108.72895
G1 X65.835 Y116.134 E108.81437
G1 X65.575 Y115.359 E108.90266
G1 X65.575 Y107.823 E109.71655
G1 X65.971 Y106.797 E109.83532
G1 X65.478 Y105.951 E109.94107
G1 X64.984 Y103.825 E110.1768
G1 X64.976 Y99.786 E110.61301
G1 X66.019 Y96.512 E110.98411
G1 X68.481 Y94.009 E111.36329
G0 F7200 X68.714 Y94.342
G1 F1800 X71.121 Y93.236 E111.64937
G1 X72.503 Y93.039 E111.80014
G1 X72.718 Y92.861 E111.83028
G1 X73.736 Y92.222 E111.96009
G1 X75.534 Y91.667 E112.16332
G1 X82.769 Y91.667 E112.9447
G1 X84.887 Y92.36 E113.18537
G1 X86.263 Y93.68 E113.39131
G1 X86.538 Y93.488 E113.42753
G1 X88.825 Y92.747 E113.68717
G1 X92.275 Y92.747 E114.05977
G1 X94.281 Y93.429 E114.28859
G1 X94.539 Y93.616 E114.32301
G1 X96.362 Y92.161 E114.57491
G1 X98.431 Y91.667 E114.80464
G1 X125.484 Y91.667 E117.72637
G1 X127.602 Y92.36 E117.96704
G1 X128.978 Y93.68 E118.17298
G1 X129.253 Y93.488 E118.2092
G1 X131.54 Y92.747 E118.46884
G1 X136.544 Y92.747 E119.00927
G1 X138.55 Y93.429 E119.23809
G1 X138.802 Y93.612 E119.27173
G1 X139.244 Y93.024 E119.35117
G1 X141.472 Y91.85 E119.62316
G1 X144.065 Y91.442 E119.90665
G1 X147.248 Y92.174 E120.25939
G1 X148.26 Y92.71 E120.38307
G1 X149.183 Y92.894 E120.48471
G1 X149.63 Y93.025 E120.53502
G1 X151.64 Y93.308 E120.75424
G1 X154.206 Y94.742 E121.07171
G1 X155.977 Y96.889 E121.37229
G1 X156.947 Y99.312 E121.65416
G1 X157.007 Y101.506 E121.8912
G1 X156.965 Y102.893 E122.04107
G1 X156.763 Y104.292 E122.19373
G1 X156.188 Y106.388 E122.42846
G1 X155.511 Y107.405 E122.5604
G1 X155.514 Y115.745 E123.46112
G1 X155.923 Y116.451 E123.54924
G1 X156.842 Y118.397 E123.78167
G1 X157.008 Y120.721 E124.0333
G1 X157.005 Y123.556 E124.33948
G1 X156.062 Y126.253 E124.64805
G1 X154.404 Y128.262 E124.92937
G1 X152.381 Y129.634 E125.19336
G1 X150.543 Y130.025 E125.39631
G1 X149.807 Y130.293 E125.4809
G1 X149.075 Y130.382 E125.56054
G1 X148.783 Y130.562 E125.59758
G1 X147.165 Y131.333 E125.79115
G1 X142.315 Y131.329 E126.31495
G1 X140.208 Y130.64 E126.55437
G1 X138.815 Y129.312 E126.76222
G1 X138.55 Y129.495 E126.797
G1 X136.265 Y130.235 E127.0564
G1 X131.537 Y130.235 E127.56703
G1 X130.024 Y129.906 E127.73425
G1 X129.054 Y129.308 E127.85732
G1 X127.148 Y130.828 E128.12061
G1 X125.069 Y131.321 E128.35136
G1 X98.04 Y131.317 E131.2705
G1 X95.952 Y130.633 E131.50779
G1 X94.543 Y129.305 E131.7169
G1 X94.27 Y129.495 E131.75282
G1 X91.985 Y130.235 E132.01222
G1 X88.833 Y130.235 E132.35264
G1 X87.323 Y129.907 E132.51952
G1 X86.352 Y129.31 E132.64262
G1 X84.444 Y130.832 E132.90622
G1 X82.377 Y131.325 E133.13572
G1 X75.478 Y131.33 E133.88081
G1 X73.776 Y130.921 E134.06986
G1 X72.294 Y129.886 E134.26508
G1 X71.57 Y129.8 E134.34382
G1 X68.804 Y128.718 E134.66459
G1 X66.587 Y126.44 E135.0079
G1 X65.16 Y123.504 E135.36046
G1 X65.189 Y119.385 E135.80532
G1 X65.768 Y116.955 E136.07511
G1 X66.276 Y116.194 E136.17392
G1 X65.975 Y115.295 E136.27631
G1 X65.975 Y107.897 E137.0753
G1 X66.413 Y106.761 E137.20679
G1 X65.854 Y105.802 E137.32667
G1 X65.384 Y103.778 E137.55108
G1 X65.376 Y99.847 E137.97563
G1 X66.371 Y96.724 E138.32962
G1 X68.714 Y94.342 E138.69047
G0 F7200 X68.946 Y94.676
G1 F1800 X71.237 Y93.624 E138.96273
G1 X72.672 Y93.419 E139.11929
G1 X72.931 Y93.2 E139.15592
G1 X73.906 Y92.588 E139.28024
G1 X75.594 Y92.067 E139.47103
G1 X82.706 Y92.067 E140.23913
G1 X84.675 Y92.711 E140.46287
G1 X86.244 Y94.217 E140.69775
G1 X86.661 Y93.869 E140.7564
G1 X88.889 Y93.147 E141.00935
G1 X92.208 Y93.147 E141.3678
G1 X94.152 Y93.808 E141.58956
G1 X94.589 Y94.196 E141.65267
G1 X94.792 Y93.925 E141.68924
G1 X96.542 Y92.529 E141.93101
G1 X98.478 Y92.067 E142.14597
G1 X125.421 Y92.067 E145.05581
G1 X127.39 Y92.711 E145.27955
G1 X128.959 Y94.217 E145.51443
G1 X129.376 Y93.869 E145.57309
G1 X131.604 Y93.147 E145.82603
G1 X136.477 Y93.147 E146.35231
G1 X138.421 Y93.808 E146.57407
G1 X138.862 Y94.199 E146.63772
G1 X139.51 Y93.336 E146.75428
G1 X141.6 Y92.235 E147.0094
G1 X144.05 Y91.849 E147.27726
G1 X147.11 Y92.553 E147.61638
G1 X148.125 Y93.091 E147.74044
G1 X149.07 Y93.278 E147.84448
G1 X149.543 Y93.417 E147.89773
G1 X151.511 Y93.694 E148.11237
G1 X153.945 Y95.054 E148.41349
G1 X155.629 Y97.096 E148.69935
G1 X156.549 Y99.393 E148.96658
G1 X156.607 Y101.495 E149.19368
G1 X156.569 Y102.837 E149.33868
G1 X156.377 Y104.186 E149.48584
G1 X155.819 Y106.22 E149.71363
G1 X155.111 Y107.284 E149.85165
G1 X155.114 Y115.853 E150.7771
G1 X155.561 Y116.622 E150.87317
G1 X156.448 Y118.501 E151.09757
G1 X156.608 Y120.721 E151.33796
G1 X156.605 Y123.487 E151.63668
G1 X155.707 Y126.055 E151.9305
G1 X154.133 Y127.962 E152.19755
G1 X152.22 Y129.26 E152.44722
G1 X150.429 Y129.641 E152.64498
G1 X149.712 Y129.902 E152.72738
G1 X148.937 Y129.996 E152.8117
G1 X148.611 Y130.201 E152.85329
G1 X147.075 Y130.933 E153.03705
G1 X142.378 Y130.929 E153.54432
G1 X140.418 Y130.288 E153.76704
G1 X138.834 Y128.777 E154.00346
G1 X138.427 Y129.114 E154.06053
G1 X136.201 Y129.835 E154.31323
G1 X131.581 Y129.835 E154.81219
G1 X130.177 Y129.53 E154.96736
G1 X128.937 Y128.766 E155.12466
G1 X128.71 Y129.071 E155.16572
G1 X126.968 Y130.46 E155.40634
G1 X125.023 Y130.921 E155.62222
G1 X98.103 Y130.917 E158.52958
G1 X96.161 Y130.281 E158.75028
G1 X94.559 Y128.771 E158.98804
G1 X94.147 Y129.114 E159.04594
G1 X91.921 Y129.835 E159.29864
G1 X88.877 Y129.835 E159.62739
G1 X87.474 Y129.53 E159.78246
G1 X86.238 Y128.771 E159.93911
G1 X86.02 Y129.063 E159.97846
G1 X84.264 Y130.464 E160.22107
G1 X82.33 Y130.925 E160.4358
G1 X75.526 Y130.93 E161.17063
G1 X73.943 Y130.549 E161.34647
G1 X72.646 Y129.644 E161.51728
G1 X72.513 Y129.51 E161.53767
G1 X71.671 Y129.409 E161.62926
G1 X69.03 Y128.376 E161.93553
G1 X66.919 Y126.207 E162.26241
G1 X65.561 Y123.413 E162.59792
G1 X65.589 Y119.433 E163.02777
G1 X66.14 Y117.118 E163.28477
G1 X66.717 Y116.253 E163.39707
G1 X66.375 Y115.231 E163.51346
G1 X66.375 Y107.971 E164.29754
G1 X66.855 Y106.725 E164.44175
